public/images/stack-items/gen-icon.svg

<svg height="40" viewBox="0 0 34 40" width="34" xmlns="http://www.w3.org/2000/svg"><path d="m67.9233177 68.7480438c.1877934-.3755868.3755868-.8137715.3755868-1.2519562 0-1.3771518-1.1267605-2.5039123-2.5039123-2.5039123h-.0625978c-.3129891-2.1283255-2.1283255-3.7558686-4.3192489-3.7558686-1.8153364 0-3.3802817 1.1267606-4.0062597 2.6917058-.3129891-.1251956-.6259781-.1877934-1.001565-.1877934-1.0015649 0-1.9405321.5007825-2.5039123 1.2519562-.5633803-.7511737-1.5023475-1.2519562-2.5039124-1.2519562-.3129891 0-.6885759.0625978-1.001565.1877934-.625978-1.5649452-2.1909233-2.6917058-4.0062597-2.6917058-2.1909234 0-4.0062598 1.6275431-4.3192489 3.7558686h-.0625978c-1.3771518 0-2.5039123 1.1267605-2.5039123 2.5039123 0 .4381847.1251956.8763694.3755868 1.2519562h-2.8794992v1.2519562h33.8028169v-1.2519562zm-25.915493 0c-.6885759 0-1.2519562-.5633803-1.2519562-1.2519562s.5633803-1.2519561 1.2519562-1.2519561h.0625978c.0625978.5633802.2503913 1.0641627.5633803 1.5649452l1.0641628-.6259781c-.3129891-.5007825-.4381847-1.001565-.4381847-1.5649452 0-1.7527387 1.3771518-3.1298905 3.1298905-3.1298905 1.7527386 0 3.1298904 1.3771518 3.1298904 3.1298905h1.2519562c0-.1877935 0-.3129891 0-.5007825.1877934-.0625978.4381847-.1251956.6259781-.1251956 1.0641627 0 1.8779343.8137715 1.8779343 1.8779342v.6259781h1.2519561v-.6259781c0-1.0641627.8137716-1.8779342 1.8779343-1.8779342.2503913 0 .4381847.0625978.6259781.1251956v.5007825h1.2519562c0-1.7527387 1.3771518-3.1298905 3.1298904-3.1298905 1.7527387 0 3.1298905 1.3771518 3.1298905 3.1298905 0 .5633802-.1251956 1.0641627-.4381847 1.5649452l1.0641628.6259781c.312989-.5007825.4381846-1.001565.5633803-1.5649452h.0625978c.6885759 0 1.2519562.5633802 1.2519562 1.2519561s-.5633803 1.2519562-1.2519562 1.2519562zm12.5195618-10.6416275h-1.2519561v-1.2519562h1.2519561zm0 2.5039123h-1.2519561v-1.2519561h1.2519561zm-1.2519561 1.2519562h1.2519561v1.2519562h-1.2519561zm-3.6932708-8.1377152c.1251956.4381847.3129891.8137716.6259781 1.1893584.5007825.5007825 1.1267606.7511737 1.7527387.7511737h3.7558685c.6885759 0 1.314554-.2503912 1.7527387-.7511737.312989-.312989.5633802-.7511737.6259781-1.1893584l2.3787167 1.8779343h2.1909233v-7.0735524l-4.3818466-6.2597809v-5.0078247l-4.3818466-7.2613459-4.3818467 7.3239437v5.0078247l-4.3818466 6.2597809v7.0109546h2.1283255zm4.9452269-4.3818466h-1.2519561v-10.6416275c0-.3755869.2503912-.6259781.6259781-.6259781.3755868 0 .625978.2503912.625978.6259781zm2.5039124 1.2519562v1.2519562h-6.2597809v-1.2519562zm-.3755868 3.3802817c-.2503913.2503912-.5633803.3755868-.8763694.3755868h-3.7558685c-.3129891 0-.6259781-.1251956-.8763693-.3755868-.2503913-.2503913-.3755869-.5633803-.3755869-.8763694h6.2597809c0 .3129891-.1251956.6259781-.3755868.8763694zm4.7574334-5.0704226v5.4460094h-.3755868l-2.7543036-2.1909233v-7.6995305zm-4.3818466.4381847h-1.2519562v-10.6416275c0-.3755869.2503913-.6259781.6259781-.6259781.3755869 0 .6259781.2503912.6259781.6259781zm-.5007825-12.5195618c-.0625978 0-.1251956 0-.1251956 0-.5007825 0-.9389671.1877934-1.2519562.5007825-.312989-.3129891-.7511737-.5007825-1.2519561-.5007825-.5007825 0-.9389672.1877934-1.2519562.5007825-.3129891-.3129891-.7511737-.5007825-1.2519562-.5007825-.0625978 0-.1251956 0-.1251956 0l2.629108-4.4444445zm-5.1330203 1.2519562c.3755868 0 .6259781.2503912.6259781.6259781v10.6416275h-1.2519562v-10.6416275c0-.3755869.2503912-.6259781.6259781-.6259781zm-5.0078247 16.2754303v-5.4460094l3.1298904-4.4444444v7.6995305l-2.7543036 2.1909233z" fill="#fff" transform="translate(-37 -30)"/></svg>

<?xml version="1.0" encoding="UTF-8"?>
<svg width="34px" height="40px" viewBox="0 0 34 40" version="1.1" xmlns="http://www.w3.org/2000/svg" xmlns:xlink="http://www.w3.org/1999/xlink">
    <!-- Generator: Sketch 50.2 (55047) - http://www.bohemiancoding.com/sketch -->
    <title>gen-icon</title>
    <desc>Created with Sketch.</desc>
    <defs></defs>
    <g id="Landing-Page" stroke="none" stroke-width="1" fill="none" fill-rule="evenodd">
        <g id="landing-v24" transform="translate(-111.000000, -1369.000000)" fill="#FFFFFF" fill-rule="nonzero">
            <g id="02-gens" transform="translate(74.000000, 1318.000000)">
                <g id="copy" transform="translate(0.000000, 21.000000)">
                    <g id="Group-10">
                        <path d="M67.9233177,68.7480438 C68.1111111,68.372457 68.2989045,67.9342723 68.2989045,67.4960876 C68.2989045,66.1189358 67.172144,64.9921753 65.7949922,64.9921753 C65.7949922,64.9921753 65.7323944,64.9921753 65.7323944,64.9921753 C65.4194053,62.8638498 63.6040689,61.2363067 61.4131455,61.2363067 C59.5978091,61.2363067 58.0328638,62.3630673 57.4068858,63.9280125 C57.0938967,63.8028169 56.7809077,63.7402191 56.4053208,63.7402191 C55.4037559,63.7402191 54.4647887,64.2410016 53.9014085,64.9921753 C53.3380282,64.2410016 52.399061,63.7402191 51.3974961,63.7402191 C51.084507,63.7402191 50.7089202,63.8028169 50.3959311,63.9280125 C49.7699531,62.3630673 48.2050078,61.2363067 46.3896714,61.2363067 C44.198748,61.2363067 42.3834116,62.8638498 42.0704225,64.9921753 C42.0704225,64.9921753 42.0078247,64.9921753 42.0078247,64.9921753 C40.6306729,64.9921753 39.5039124,66.1189358 39.5039124,67.4960876 C39.5039124,67.9342723 39.629108,68.372457 39.8794992,68.7480438 L37,68.7480438 L37,70 L70.8028169,70 L70.8028169,68.7480438 L67.9233177,68.7480438 Z M42.0078247,68.7480438 C41.3192488,68.7480438 40.7558685,68.1846635 40.7558685,67.4960876 C40.7558685,66.8075117 41.3192488,66.2441315 42.0078247,66.2441315 C42.0078247,66.2441315 42.0704225,66.2441315 42.0704225,66.2441315 C42.1330203,66.8075117 42.3208138,67.3082942 42.6338028,67.8090767 L43.6979656,67.1830986 C43.3849765,66.6823161 43.2597809,66.1815336 43.2597809,65.6181534 C43.2597809,63.8654147 44.6369327,62.4882629 46.3896714,62.4882629 C48.14241,62.4882629 49.5195618,63.8654147 49.5195618,65.6181534 L50.771518,65.6181534 C50.771518,65.4303599 50.771518,65.3051643 50.771518,65.1173709 C50.9593114,65.0547731 51.2097027,64.9921753 51.3974961,64.9921753 C52.4616588,64.9921753 53.2754304,65.8059468 53.2754304,66.8701095 L53.2754304,67.4960876 L54.5273865,67.4960876 L54.5273865,66.8701095 C54.5273865,65.8059468 55.3411581,64.9921753 56.4053208,64.9921753 C56.6557121,64.9921753 56.8435055,65.0547731 57.0312989,65.1173709 C57.0312989,65.3051643 57.0312989,65.4303599 57.0312989,65.6181534 L58.2832551,65.6181534 C58.2832551,63.8654147 59.6604069,62.4882629 61.4131455,62.4882629 C63.1658842,62.4882629 64.543036,63.8654147 64.543036,65.6181534 C64.543036,66.1815336 64.4178404,66.6823161 64.1048513,67.1830986 L65.1690141,67.8090767 C65.4820031,67.3082942 65.6071987,66.8075117 65.7323944,66.2441315 C65.7323944,66.2441315 65.7949922,66.2441315 65.7949922,66.2441315 C66.4835681,66.2441315 67.0469484,66.8075117 67.0469484,67.4960876 C67.0469484,68.1846635 66.4835681,68.7480438 65.7949922,68.7480438 L42.0078247,68.7480438 Z M54.5273865,58.1064163 L53.2754304,58.1064163 L53.2754304,56.8544601 L54.5273865,56.8544601 L54.5273865,58.1064163 Z M54.5273865,60.6103286 L53.2754304,60.6103286 L53.2754304,59.3583725 L54.5273865,59.3583725 L54.5273865,60.6103286 Z M53.2754304,61.8622848 L54.5273865,61.8622848 L54.5273865,63.114241 L53.2754304,63.114241 L53.2754304,61.8622848 Z M49.5821596,53.7245696 C49.7073552,54.1627543 49.8951487,54.5383412 50.2081377,54.913928 C50.7089202,55.4147105 51.3348983,55.6651017 51.9608764,55.6651017 L55.7167449,55.6651017 C56.4053208,55.6651017 57.0312989,55.4147105 57.4694836,54.913928 C57.7824726,54.600939 58.0328638,54.1627543 58.0954617,53.7245696 L60.4741784,55.6025039 L62.6651017,55.6025039 L62.6651017,48.5289515 L58.2832551,42.2691706 L58.2832551,37.2613459 L53.9014085,30 L49.5195618,37.3239437 L49.5195618,42.3317684 L45.1377152,48.5915493 L45.1377152,55.6025039 L47.2660407,55.6025039 L49.5821596,53.7245696 Z M54.5273865,49.342723 L53.2754304,49.342723 L53.2754304,38.7010955 C53.2754304,38.3255086 53.5258216,38.0751174 53.9014085,38.0751174 C54.2769953,38.0751174 54.5273865,38.3255086 54.5273865,38.7010955 L54.5273865,49.342723 Z M57.0312989,50.5946792 L57.0312989,51.8466354 L50.771518,51.8466354 L50.771518,50.5946792 L57.0312989,50.5946792 Z M56.6557121,53.9749609 C56.4053208,54.2253521 56.0923318,54.3505477 55.7793427,54.3505477 L52.0234742,54.3505477 C51.7104851,54.3505477 51.3974961,54.2253521 51.1471049,53.9749609 C50.8967136,53.7245696 50.771518,53.4115806 50.771518,53.0985915 L57.0312989,53.0985915 C57.0312989,53.4115806 56.9061033,53.7245696 56.6557121,53.9749609 Z M61.4131455,48.9045383 L61.4131455,54.3505477 L61.0375587,54.3505477 L58.2832551,52.1596244 L58.2832551,44.4600939 L61.4131455,48.9045383 Z M57.0312989,49.342723 L55.7793427,49.342723 L55.7793427,38.7010955 C55.7793427,38.3255086 56.029734,38.0751174 56.4053208,38.0751174 C56.7809077,38.0751174 57.0312989,38.3255086 57.0312989,38.7010955 L57.0312989,49.342723 Z M56.5305164,36.8231612 C56.4679186,36.8231612 56.4053208,36.8231612 56.4053208,36.8231612 C55.9045383,36.8231612 55.4663537,37.0109546 55.1533646,37.3239437 C54.8403756,37.0109546 54.4021909,36.8231612 53.9014085,36.8231612 C53.400626,36.8231612 52.9624413,37.0109546 52.6494523,37.3239437 C52.3364632,37.0109546 51.8982786,36.8231612 51.3974961,36.8231612 C51.3348983,36.8231612 51.2723005,36.8231612 51.2723005,36.8231612 L53.9014085,32.3787167 L56.5305164,36.8231612 Z M51.3974961,38.0751174 C51.7730829,38.0751174 52.0234742,38.3255086 52.0234742,38.7010955 L52.0234742,49.342723 L50.771518,49.342723 L50.771518,38.7010955 C50.771518,38.3255086 51.0219092,38.0751174 51.3974961,38.0751174 Z M46.3896714,54.3505477 L46.3896714,48.9045383 L49.5195618,44.4600939 L49.5195618,52.1596244 L46.7652582,54.3505477 L46.3896714,54.3505477 Z" id="gen-icon"></path>
                    </g>
                </g>
            </g>
        </g>
    </g>
</svg>
